X:1
T:Title
%%score ( 1 2 ) { 3 | 4 }
L:1/8
Q:1/4=103
M:4/4
K:G
V:1 treble nm="Grand Piano, Soprano"
V:2 treble 
V:3 treble nm="Choir Pad, Thanksgiving"
V:4 bass 
V:1
 GA [GB]2- [GB][GB][GB][FA] | G[DG] [EG]4 [CE]2 | [CE]2 D2- D/ z/ [DG] cB | [CE][EA] G4 F2 | %4
w: By~Franklin~Edson~Belden * * * * * *||||
 [Fd]2 [Gd]2- [Gd][Ad][Gd][Gd] | [Fc][GB] [Ge]4 [Ec]2 | [EA]2 [DG]2- [DG][DG]BA | GF [DG]6 | %8
w: ||||
 [DB]2 [DA]2- [DA][DB][Dc][DF] | [DG][DA] B4 d2 | [Gd]2 [Fd]2- [Fd][G^c] [GB]2 | [G^c]2 [Fd]6 | %12
w: ||||
 [Ac]2 [GB]2- [GB][GB][GB][FA] | G[DG] [EG]4 [CE]2 | [Ec]2 [DB]2- [DB][DG]BA | GF [DG]6 | %16
w: ||||
 [GB]2 [FA]6 | [Fd]>[FA] [GB]6 | [Gd]2 [Fd]2- [Fd][G^c] [GB]2 | [G^c]2 [Fd]6 | %20
w: ||||
 [Ac]2 [GB]2- [GB][GB][GB][FA] | G[DG] [EG]4 [CE]2 | [Ec]2 [DB]2- [DB][DG][GB][DA] | GF [DG]6- | %24
w: ||||
 [DG]2 z2 z4 |] %25
w: |
V:2
 D2 z2 z4 | x8 | z4 z2 D2 | z2 D6 | x8 | x8 | z4 z2 D2 | D2 z2 z4 | x8 | z2 D6 | x8 | x8 | x8 | %13
 x8 | z4 z2 D2 | D2 z2 z4 | x8 | x8 | x8 | x8 | x8 | x8 | x8 | D2 z2 z4 | x8 |] %25
V:3
 B,C D2- DDDD | DD C4[K:bass] G,2 | G,2 G,2- G,G,F,G, | G,C B,4 A,2 | A,2 B,2- B,[K:treble]CB,D | %5
 DD C4[K:bass] G,2 | C2 B,2- B,B,DC | B,A, B,6 | G,2 F,2- F,G,A,A, | G,F, G,4 B,2 | %10
 B,2 A,2- A,/ z/ A, A,2 | A,2 A,6 | D2 D2- DDDD | DD C4[K:bass] G,2 | G,2 G,2- G,B,[K:treble]DC | %15
 B,B, B,6 | z4 D>D D2 | z4 D>D D2 | B,2 A,2- A,/ z/ A, A,2 | A,2 A,6 | D2 D2- DDDD | %21
 DD C4[K:bass] G,2 | G,2 G,2- G,B,DC | B,A, B,6- | B,2 z2 z4 |] %25
V:4
 G,2 G,2- G,G,G,D, | B,,B,, C,6 | C,2 B,,2- B,,B,,A,,G,, | C,2 D,6 | D,2 G,2- G,F,G,B, | A,G, C,6 | %6
 C,2 D,2- D,D, D,2 | D,2 G,,6 | G,,2 D,2- D,D,D,C, | B,,D, z2 z4 | G,2 z2 z2 A,,2 | A,,2 D,6 | %12
 D,2 G,2- G,G,G,D, | B,,B,, C,6 | C,2 D,2- D,D, D,2 | D,2 G,,6 | z4 D,>D, D,2 | z4 G,>G, G,2 | %18
 G,2 z2 z2 A,,2 | A,,2 D,6 | D,2 G,2- G,G,G,D, | B,,B,, C,6 | C,2 D,2- D,D, D,2 | D,2 G,,6- | %24
 G,,2 z2 z4 |] %25

